X: 3
T: The Ballydesmond
R: polka
M: 2/4
L: 1/8
K: Ador
|: c2 Bc/B/ | AB/A/ G>A | Bd ed | g2 gd |
e/g/a ge | dB GA/B/ | ce dB | A2 A2 :|
|: ea ag/e/ | dg ge/d/ | ea ab | g2 ed |
ea g/a/g/e/ | dB GA/B/ | ce dB | A2 A2 :|


Tune 239	Setting 12943

